src/assets/svg/pills.svg

<svg width="35" height="48" viewBox="0 0 35 48" fill="none" xmlns="http://www.w3.org/2000/svg">
<g clip-path="url(#clip0_14_2170)">
<path d="M34.9313 14.9538L34.8231 37.4295L34.805 41.7768C34.787 45.2311 31.504 48.018 27.4634 48L7.27854 47.9098C3.24697 47.8827 -0.0179639 45.0687 7.4386e-05 41.6054L0.126343 14.7824C0.135362 11.9865 2.29996 9.62343 5.25824 8.83877L5.26726 7.3957V6.65613L29.8625 6.77338L29.8535 8.95601C32.8028 9.77676 34.9403 12.1488 34.9313 14.9538Z" fill="url(#paint0_linear_14_2170)"/>
<path d="M31.6939 1.00113V1.19955L31.6758 3.54453L31.6578 5.84442V6.12401C31.6578 6.55693 31.297 6.90868 30.8641 6.90868H30.6747L29.4842 6.89966L28.1764 6.89064L26.9859 6.88162L25.6781 6.8726L24.4695 6.85457L23.1617 6.84555L21.9712 6.83653L20.6544 6.82751L19.4548 6.81849L18.1471 6.80947L16.9565 6.79143L15.6488 6.78241L14.4582 6.77339L13.1414 6.76437L11.9419 6.75536L10.6431 6.74634L9.45259 6.73732L8.14481 6.7283L6.94526 6.71928L5.63749 6.71026L4.43794 6.70124H4.24853C3.81561 6.70124 3.46387 6.34047 3.46387 5.90755V5.89853V5.70011L3.49994 1.06426V0.784667C3.49994 0.351747 3.86071 0 4.30265 0H4.49205L6.99938 0.0180383L9.50671 0.0360767L10.7063 0.0450958L12.014 0.054115L13.2046 0.0631342L15.7029 0.0901917L17.0107 0.0992108L18.2012 0.10823L19.509 0.117249L20.6995 0.126268L22.0073 0.135287L23.1978 0.144307L24.5056 0.153326L25.6961 0.162345L27.0219 0.180383L28.2125 0.189402L29.5202 0.198422L30.7198 0.207441H30.9092C31.3511 0.21646 31.6939 0.568208 31.6939 1.00113Z" fill="url(#paint1_linear_14_2170)"/>
<path d="M31.6939 1.20852L31.6758 3.54448L31.6578 5.84437L30.5845 5.83535L29.1595 5.82633L27.8517 5.81731H26.4176L25.1099 5.80829L23.6848 5.79927L22.3771 5.79025H20.943L19.6352 5.78123L18.2012 5.77222L16.9024 5.7632H15.4684L14.1606 5.75418L12.7266 5.74516L11.4188 5.73614H9.99374L8.68596 5.72712L7.25192 5.7181L5.94414 5.70908H4.51911L3.46387 5.70006L3.49994 1.06421L6.00727 1.07323L8.74008 1.09127L10.0479 1.10029L11.4819 1.1093H12.7897L15.5225 1.12734L16.9565 1.13636H18.2643L19.6984 1.14538L20.9971 1.1544L22.4312 1.16342H23.739L25.173 1.17244L26.4718 1.18146L27.9058 1.19048H29.2136L30.6476 1.1995L31.6939 1.20852Z" fill="url(#paint2_linear_14_2170)"/>
<path d="M34.9046 19.6993L0.0996094 19.5347L0.0266299 34.9665L34.8316 35.1311L34.9046 19.6993Z" fill="#F7F9FC"/>
<path d="M34.9114 19.6992L0.106445 19.5347L0.0933125 22.3126L34.8983 22.4771L34.9114 19.6992Z" fill="#FBFCF7"/>
<path d="M13.6735 25.7395L11.4277 25.7305L11.4367 23.4757L8.34314 23.4667L8.33412 25.7124L6.08835 25.7034L6.07031 28.788L8.31608 28.797L8.30707 31.0518L11.4006 31.0608L11.4097 28.815L13.6554 28.8241L13.6735 25.7395Z" fill="url(#paint3_linear_14_2170)"/>
<path d="M28.9335 26.4881L17.8038 26.434C17.5062 26.434 17.2627 26.1904 17.2627 25.8928V25.6403C17.2627 25.3426 17.5062 25.0991 17.8038 25.0991L28.9335 25.1532C29.2311 25.1532 29.4746 25.3968 29.4746 25.6944V25.9469C29.4746 26.2446 29.2311 26.4881 28.9335 26.4881Z" fill="url(#paint4_linear_14_2170)"/>
<path opacity="0.5" d="M28.9247 29.7981L17.7951 29.744C17.4974 29.744 17.2539 29.5005 17.2539 29.2029V28.9503C17.2539 28.6527 17.4974 28.4092 17.7951 28.4092L28.9247 28.4633C29.2223 28.4633 29.4659 28.7068 29.4659 29.0044V29.257C29.4659 29.5546 29.2223 29.7981 28.9247 29.7981Z" fill="url(#paint5_linear_14_2170)"/>
<path opacity="0.08" d="M3.46387 1.00108V1.19951L3.48191 3.54449L3.49994 5.83536V6.11495C3.49994 6.54787 3.86071 6.89962 4.29363 6.89962H4.48303L5.68258 6.8906L6.99036 6.88158L8.18089 6.87256L9.48867 6.86354L10.6792 6.85452L11.987 6.8455L13.1775 6.83648L14.4853 6.82746L15.6848 6.81845L16.9926 6.80943L18.1831 6.80041L19.4909 6.79139L20.6815 6.78237L21.9892 6.77335L23.1888 6.76433L24.4966 6.75531L25.6871 6.74629L26.9949 6.73727L28.1854 6.72825L29.4932 6.71923L30.6927 6.71022H30.8821C31.3151 6.71022 31.6668 6.34945 31.6668 5.91653V5.90751V5.70909C17.7142 6.31337 4.24853 0.207397 4.24853 0.207397C3.81561 0.216417 3.46387 0.568164 3.46387 1.00108Z" fill="#1A6FB5"/>
</g>
<defs>
<linearGradient id="paint0_linear_14_2170" x1="7.42015e-05" y1="6.39998" x2="32.2667" y2="50.9333" gradientUnits="userSpaceOnUse">
<stop stop-color="#6CBCFC"/>
<stop offset="1" stop-color="#458DFC"/>
</linearGradient>
<linearGradient id="paint1_linear_14_2170" x1="-355.725" y1="-22.5493" x2="-15.5877" y2="1.14187" gradientUnits="userSpaceOnUse">
<stop stop-color="#B0F4FF"/>
<stop offset="0.0525488" stop-color="#A9F2FF"/>
<stop offset="0.2879" stop-color="#8DE8FE"/>
<stop offset="0.5247" stop-color="#79E1FD"/>
<stop offset="0.7618" stop-color="#6DDDFC"/>
<stop offset="1" stop-color="#69DCFC"/>
</linearGradient>
<linearGradient id="paint2_linear_14_2170" x1="3.46776" y1="3.45206" x2="31.695" y2="3.45206" gradientUnits="userSpaceOnUse">
<stop stop-color="#B0F4FF"/>
<stop offset="0.0525488" stop-color="#A9F2FF"/>
<stop offset="0.2879" stop-color="#8DE8FE"/>
<stop offset="0.5247" stop-color="#79E1FD"/>
<stop offset="0.7618" stop-color="#6DDDFC"/>
<stop offset="1" stop-color="#69DCFC"/>
</linearGradient>
<linearGradient id="paint3_linear_14_2170" x1="12.4115" y1="24.3362" x2="7.11428" y2="30.4447" gradientUnits="userSpaceOnUse">
<stop stop-color="#6CBCFC"/>
<stop offset="1" stop-color="#458DFC"/>
</linearGradient>
<linearGradient id="paint4_linear_14_2170" x1="29.582" y1="25.7907" x2="16.3125" y2="25.7907" gradientUnits="userSpaceOnUse">
<stop stop-color="#6CBCFC"/>
<stop offset="1" stop-color="#458DFC"/>
</linearGradient>
<linearGradient id="paint5_linear_14_2170" x1="17.2531" y1="29.1005" x2="29.466" y2="29.1005" gradientUnits="userSpaceOnUse">
<stop stop-color="#6CBCFC"/>
<stop offset="1" stop-color="#458DFC"/>
</linearGradient>
<clipPath id="clip0_14_2170">
<rect width="34.9312" height="48" fill="white"/>
</clipPath>
</defs>
</svg>

<svg width="35" height="48" fill="none" xmlns="http://www.w3.org/2000/svg"><g clip-path="url(#clip0_14_2170)"><path d="M34.931 14.954l-.108 22.475-.018 4.348c-.018 3.454-3.301 6.241-7.342 6.223L7.28 47.91C3.247 47.883-.018 45.069 0 41.605l.126-26.823C.136 11.986 2.3 9.623 5.258 8.84l.01-1.443v-.74l24.595.117-.01 2.183c2.95.82 5.087 3.193 5.078 5.998z" fill="url(#paint0_linear_14_2170)"/><path d="M31.694 1.001V1.2l-.018 2.345-.018 2.3v.279c0 .433-.361.785-.794.785h-.19l-1.19-.01-1.308-.008-1.19-.01-1.308-.008-1.209-.018-1.307-.01-1.19-.008-1.318-.01-1.2-.009-1.307-.009-1.19-.018-1.308-.009-1.19-.009-1.318-.009-1.2-.009-1.298-.009-1.19-.009-1.308-.009-1.2-.009-1.308-.009-1.2-.009H4.25a.793.793 0 01-.785-.793V5.7L3.5 1.064v-.28C3.5.353 3.86 0 4.303 0h.189L7 .018l2.508.018 1.2.01 1.307.008 1.19.01 2.499.026L17.01.1l1.19.008 1.308.01 1.19.008 1.308.01 1.19.008 1.309.01 1.19.008 1.326.018 1.19.01 1.308.008 1.2.01h.19c.441.008.784.36.784.793z" fill="url(#paint1_linear_14_2170)"/><path d="M31.694 1.209l-.018 2.335-.018 2.3-1.074-.009-1.424-.009-1.308-.009h-1.434l-1.308-.009-1.425-.009-1.308-.009h-1.434l-1.308-.009-1.434-.009-1.299-.009h-1.434l-1.307-.009-1.434-.009-1.308-.009H9.994l-1.308-.009-1.434-.009-1.308-.009H4.52L3.464 5.7 3.5 1.064l2.507.01 2.733.017 1.308.01 1.434.008h1.308l2.733.018 1.433.01h1.308l1.434.008 1.3.01 1.433.008h1.308l1.434.01 1.299.008 1.434.01h1.308l1.434.008 1.046.01z" fill="url(#paint2_linear_14_2170)"/><path d="M34.905 19.7L.1 19.534.027 34.967l34.805.164.073-15.432z" fill="#F7F9FC"/><path d="M34.911 19.7L.106 19.534l-.013 2.778 34.805.164.013-2.778z" fill="#FBFCF7"/><path d="M13.674 25.74l-2.246-.01.009-2.254-3.094-.01-.009 2.246-2.246-.009-.018 3.085 2.246.009-.009 2.255 3.094.009.009-2.246 2.245.01.019-3.085z" fill="url(#paint3_linear_14_2170)"/><path d="M28.933 26.488l-11.13-.054a.543.543 0 01-.54-.541v-.253c0-.297.243-.54.54-.54l11.13.053c.298 0 .542.244.542.541v.253a.543.543 0 01-.542.541z" fill="url(#paint4_linear_14_2170)"/><path opacity=".5" d="M28.925 29.798l-11.13-.054a.543.543 0 01-.541-.541v-.253c0-.297.243-.54.541-.54l11.13.053c.297 0 .54.244.54.541v.253a.543.543 0 01-.54.541z" fill="url(#paint5_linear_14_2170)"/><path opacity=".08" d="M3.464 1.001V1.2l.018 2.344.018 2.291v.28c0 .433.36.785.794.785h.189l1.2-.01 1.307-.008 1.19-.01 1.309-.008 1.19-.01 1.308-.008 1.19-.01 1.308-.009 1.2-.009 1.308-.009 1.19-.009 1.308-.009 1.19-.009 1.308-.009 1.2-.009 1.308-.009 1.19-.009 1.308-.009 1.19-.009 1.308-.009 1.2-.009h.19c.432 0 .784-.36.784-.793V5.709C17.714 6.313 4.249.207 4.249.207a.799.799 0 00-.785.794z" fill="#1A6FB5"/></g><defs><linearGradient id="paint0_linear_14_2170" x1="0" y1="6.4" x2="32.267" y2="50.933" gradientUnits="userSpaceOnUse"><stop stop-color="#6CBCFC"/><stop offset="1" stop-color="#458DFC"/></linearGradient><linearGradient id="paint1_linear_14_2170" x1="-355.725" y1="-22.549" x2="-15.588" y2="1.142" gradientUnits="userSpaceOnUse"><stop stop-color="#B0F4FF"/><stop offset=".053" stop-color="#A9F2FF"/><stop offset=".288" stop-color="#8DE8FE"/><stop offset=".525" stop-color="#79E1FD"/><stop offset=".762" stop-color="#6DDDFC"/><stop offset="1" stop-color="#69DCFC"/></linearGradient><linearGradient id="paint2_linear_14_2170" x1="3.468" y1="3.452" x2="31.695" y2="3.452" gradientUnits="userSpaceOnUse"><stop stop-color="#B0F4FF"/><stop offset=".053" stop-color="#A9F2FF"/><stop offset=".288" stop-color="#8DE8FE"/><stop offset=".525" stop-color="#79E1FD"/><stop offset=".762" stop-color="#6DDDFC"/><stop offset="1" stop-color="#69DCFC"/></linearGradient><linearGradient id="paint3_linear_14_2170" x1="12.412" y1="24.336" x2="7.114" y2="30.445" gradientUnits="userSpaceOnUse"><stop stop-color="#6CBCFC"/><stop offset="1" stop-color="#458DFC"/></linearGradient><linearGradient id="paint4_linear_14_2170" x1="29.582" y1="25.791" x2="16.313" y2="25.791" gradientUnits="userSpaceOnUse"><stop stop-color="#6CBCFC"/><stop offset="1" stop-color="#458DFC"/></linearGradient><linearGradient id="paint5_linear_14_2170" x1="17.253" y1="29.101" x2="29.466" y2="29.101" gradientUnits="userSpaceOnUse"><stop stop-color="#6CBCFC"/><stop offset="1" stop-color="#458DFC"/></linearGradient><clipPath id="clip0_14_2170"><path fill="#fff" d="M0 0h34.931v48H0z"/></clipPath></defs></svg>
